!!!COM: Palestrina, Giovanni Perluigi da
!!!OPR: Sacerdotes Domini
!!!OTL: Benedictus
**kern	**kern	**kern	**kern
*Icalto	*Icalto	*Icant	*Icant
!Altus 2	!Altus 1	!Cantus 2	!Cantus 1
*clefG2	*clefG2	*clefG2	*clefG2
*k[]	*k[]	*k[]	*k[]
*G:mix	*G:mix	*G:mix	*G:mix
*M4/2	*M4/2	*M4/2	*M4/2
=1	=1	=1	=1
0r	1d	0r	1.dd
.	2f	.	.
.	2g	.	2dd
=2	=2	=2	=2
0r	2a	0r	2cc
.	2.cc	.	2a
.	.	.	2cc
.	4b	.	.
.	[2a	.	[2cc
=3	=3	=3	=3
0r	2a]	0r	2cc]
.	4g	.	4b
.	4f	.	4a
.	2g	.	1b
.	2e	.	.
=4	=4	=4	=4
1d	2.f	1.dd	1a
.	4e	.	.
2f	4d	.	1r
.	4c	.	.
2g	2B	2dd	.
=5	=5	=5	=5
2a	0A	2cc	0r
2.cc	.	2a	.
.	.	2cc	.
4b	.	.	.
[2a	.	[2cc	.
=6	=6	=6	=6
2a]	0e	2cc]	0r
4g	.	4b	.
4f	.	4a	.
2g	.	1b	.
2e	.	.	.
=7	=7	=7	=7
0f	2r	1a	2r
.	1a	.	2a
.	.	1r	2cc
.	2a	.	2dd
=8	=8	=8	=8
1e	2g	0r	2ee
.	2e	.	2.gg
1c	2g	.	.
.	.	.	4ff
.	[2g	.	[2ee
=9	=9	=9	=9
1d	2g]	1r	2ee]
.	4f	.	4dd
.	4e	.	4cc
2r	[1f	1a	2dd
[2a	.	.	[2cc
=10	=10	=10	=10
2a]	1f]	2cc	2cc]
2a	.	2dd	4b
.	.	.	4a
2g	1e	2ee	1b
2e	.	[2gg	.
=11	=11	=11	=11
2g	1c	4gg]	1cc
.	.	4ff	.
1g	.	1ee	.
.	1d	.	[1a
4f	.	4dd	.
4e	.	4cc	.
=12	=12	=12	=12
1f	2r	2dd	1a]
.	1a	1cc	.
2.e	.	.	1r
.	2g	[2b	.
4d	.	.	.
=13	=13	=13	=13
2c	2e	4b]	2r
.	.	4a	.
2d	2f	1a	1dd
1B	1d	.	.
.	.	2g#	2dd
=14	=14	=14	=14
2A	2e	1a	2cc
1a	2.f	.	2a
.	.	2r	2cc
.	4e	.	.
2a	4c	[2ee	[2cc
.	4d	.	.
=15	=15	=15	=15
2g	1.e	2ee]	2cc]
2e	.	2.gg	4b
.	.	.	4a
2g	.	.	2b
.	.	4ff	.
[2g	2c	[2ee	2cc
=16	=16	=16	=16
4g]	1d	4ee]	0a
4f	.	4dd	.
4f	.	1dd	.
8e	.	.	.
8d	.	.	.
1e	1A	.	.
.	.	2cc#	.
=17	=17	=17	=17
4d	1d	1dd	2r
4e	.	.	.
4f	.	.	2dd
4d	.	.	.
1e	2r	1g	2dd
.	2g	.	2cc#
=18	=18	=18	=18
1d	2g	1a	2.dd
.	2f#	.	.
.	.	.	4cc
1r	2.g	1r	2b
.	.	.	[2dd
.	8f	.	.
.	8e	.	.
=19	=19	=19	=19
1r	4d	0r	4dd]
.	4e	.	4cc
.	2f	.	4a
.	.	.	4b
2r	2e	.	2cc
2a	2d	.	2dd
=20	=20	=20	=20
2a	1e	0r	2b
2g#	.	.	2.ee
2.a	2.A	.	.
.	.	.	4dd
.	.	.	[2cc
8g	4B	.	.
8f	.	.	.
=21	=21	=21	=21
4e	2c	2r	2cc]
4f#	.	.	.
2g	2G	2dd	2b
2f	1A	2dd	[1a
2e	.	2cc#	.
=22	=22	=22	=22
2f	1d	2.dd	1a]
4d	.	.	.
4e	.	8cc	.
.	.	8b	.
4f	1r	4a	2r
4g	.	4b	.
2a	.	2cc	2ee
=23	=23	=23	=23
2g	2r	2b	2ee
2f	2a	2a	2dd
1e	2a	1b	[1ee
.	2g#	.	.
=24	=24	=24	=24
1A	2.a	1.cc	1ee]
.	8g	.	.
.	8f	.	.
1r	4e	.	2r
.	4f#	.	.
.	2g	2b	2dd
=25	=25	=25	=25
1r	2f	2a	2dd
.	2e	2g	2cc#
1d	2f	1a	2.dd
.	4d	.	.
.	4e	.	8cc
.	.	.	8b
=26	=26	=26	=26
2d	4f	0r	4a
.	4d	.	4b
2c	2.g	.	2cc
2.d	.	.	2b
.	4f	.	.
.	4f	.	4a
8c	8e	.	4b
8B	8d	.	.
=27	=27	=27	=27
4A	2.e	0r	4cc
4B	.	.	4dd
2c	.	.	2ee
.	4f	.	.
2B	2g	.	2dd
2A	[2a	.	2cc
=28	=28	=28	=28
1e	2a]	2r	1b
.	2g	2ee	.
2r	1f	2ee	1a
[2a	.	2dd	.
=29	=29	=29	=29
2a]	1e	2.ee	2.b
1g	.	.	.
.	.	8dd	4cc
.	.	8cc	.
.	2r	4b	2dd
.	.	4cc	.
2f	2a	2dd	2dd
=30	=30	=30	=30
1e	2a	2cc	1ee
.	2g#	2b	.
2r	2.a	2.cc	2r
2c	.	.	2ee
.	8g	8b	.
.	8f	8a	.
=31	=31	=31	=31
2c	2e	1g	2ee
2B	2.g	.	2dd
2.c	.	1r	2.ee
.	4f	.	.
.	[2e	.	.
8B	.	.	8dd
8A	.	.	8cc
=32	=32	=32	=32
4G	2e]	1g	2b
4A	.	.	.
2B	2d	.	2.dd
2A	2e	2g	.
.	.	.	4cc
2A	4d	2f#	[2cc
.	4c	.	.
=33	=33	=33	=33
1G	1d	1g	2cc]
.	.	.	2b
1c	2r	2r	2.cc
.	2c	2ee	.
.	.	.	8b
.	.	.	8a
=34	=34	=34	=34
0r	2c	2ee	[0g
.	2B	2dd	.
.	2.c	2.ee	.
.	8B	8dd	.
.	8A	8cc	.
=35	=35	=35	=35
2r	4G	4b	1g]
.	4A	4cc	.
2g	2B	2dd	.
2g	2A	2cc	1r
2f#	2A	2a	.
=36	=36	=36	=36
2.g	2G	1b	1dd
.	4G	.	.
8f	4A	.	.
8e	.	.	.
[1d	4B	2r	[1dd
.	4c	.	.
.	4d	2a	.
.	4e	.	.
=37	=37	=37	=37
2d]	4f	1a	2dd]
.	4g	.	.
2f	2.a	.	2cc
2e	.	2b	1ee
.	4g	.	.
2c	[2g	2cc	.
=38	=38	=38	=38
1d	2g]	2.a	2.dd
.	2f#	.	.
.	.	4a	4dd
[1G	[1g	[1b	[1dd
=39	=39	=39	=39
1G]	1g]	1b]	1dd]
==	==	==	==
*-	*-	*-	*-
!!!CDT: 1525/^1526/-1594/2/2
!!!OCY: Italia
!!!AGN: Mass (Canonic)
!!!AST: renaissance, vocal
!!!ASW: Motet (unidentified)
!!!PWK: Masses, Book 8
!!!RNB: Cadence finals: C
!!!YOR: Le Opere Complete, v. 24, p. 157
!!!YOO: Rome, Italy: Fratelli Scalera
!!!END: 1992//
!!!EED: John Miller
!!!YEC: Copyright 2000, John Miller
!!!YEN: United States of America
!!!YEM: Rights to all derivative electronic formats reserved.
!!!YEM: Refer to licensing agreement for further details.
!!!YEM: This file must be accompanied by the licensing agreement.
!!!YEM: A copy of the licensing agreement may be found at http://www.music-cog.ohio-state.edu/HumdrumDatabases/Palestrina/license.txt
!!!EMD: converted to Humdrum by Bret Aarden
